svg/furkot/freepik/envelope.svg

<svg viewBox="0 0 512 512" xmlns="http://www.w3.org/2000/svg"><path d="m0 163.2v187.8l134.144-87.192zm512 187.8v-187.8l-134.144 100.608zm-256 4.2-89.143-66.857-166.857 108.457v38.4h512v-38.4l-166.857-108.457z"/><path d="m0 115.2 256 192 256-192v-38.4h-512z"/></svg>

<svg xmlns="http://www.w3.org/2000/svg" viewBox="0 0 512 512"><path d="M0 163.2L0 351 134.144 263.808ZM512 351L512 163.2 377.856 263.808ZM256 355.2L166.857 288.343 0 396.8 0 435.2 512 435.2 512 396.8 345.143 288.343Z"/><path d="M0 115.2L256 307.2 512 115.2 512 76.8 0 76.8Z"/></svg>
